img/skills/angular.svg

<?xml version="1.0" encoding="UTF-8" standalone="no"?><!DOCTYPE svg PUBLIC "-//W3C//DTD SVG 1.1//EN" "http://www.w3.org/Graphics/SVG/1.1/DTD/svg11.dtd"><svg width="100%" height="100%" viewBox="0 0 512 512" version="1.1" xmlns="http://www.w3.org/2000/svg" xmlns:xlink="http://www.w3.org/1999/xlink" xml:space="preserve" style="fill-rule:evenodd;clip-rule:evenodd;stroke-linejoin:round;stroke-miterlimit:1.41421;"><path id="path14" d="M255.227,0l-240.889,84.774l38.064,315.608l203.081,111.618l204.128,-113.13l38.051,-315.596l-242.435,-83.274Z" style="fill:#c4e1f7;fill-rule:nonzero;"/><path id="path16" d="M473.637,101.513l-218.973,-74.671l0,458.49l183.509,-101.559l35.464,-282.26Z" style="fill:#1485e0;fill-rule:nonzero;"/><path id="path18" d="M41.369,102.862l32.618,282.258l180.676,100.212l0,-458.499l-213.294,76.029l0,0Z" style="fill:#77bef7;fill-rule:nonzero;"/><path id="path20" d="M305.421,254.887l-50.357,-105.16l-44.331,105.16l94.688,0Zm19.199,44.218l-133.485,0l-29.862,74.694l-55.548,1.027l148.941,-331.335l154.132,331.335l-51.484,0l-32.694,-75.721l0,0Z" style="fill:#f2f2f2;fill-rule:nonzero;"/><path id="path22" d="M254.664,43.491l0.398,106.236l50.305,105.241l-50.589,0l-0.114,44.069l69.953,0.068l32.695,75.734l53.15,0.985l-155.798,-332.333Z" style="fill:#c4e1f7;fill-rule:nonzero;"/></svg>

<?xml version="1.0" encoding="UTF-8" standalone="no"?>
<!DOCTYPE svg PUBLIC "-//W3C//DTD SVG 1.1//EN" "http://www.w3.org/Graphics/SVG/1.1/DTD/svg11.dtd">
<svg width="100%" height="100%" viewBox="0 0 512 512" version="1.1" xmlns="http://www.w3.org/2000/svg" xmlns:xlink="http://www.w3.org/1999/xlink" xml:space="preserve" xmlns:serif="http://www.serif.com/" style="fill-rule:evenodd;clip-rule:evenodd;stroke-linejoin:round;stroke-miterlimit:1.41421;">
    <path id="path14" d="M255.227,0L14.338,84.774L52.402,400.382L255.483,512L459.611,398.87L497.662,83.274L255.227,0Z" style="fill:rgb(196,225,247);fill-rule:nonzero;"/>
    <path id="path16" d="M473.637,101.513L254.664,26.842L254.664,485.332L438.173,383.773L473.637,101.513Z" style="fill:rgb(20,133,224);fill-rule:nonzero;"/>
    <path id="path18" d="M41.369,102.862L73.987,385.12L254.663,485.332L254.663,26.833L41.369,102.862Z" style="fill:rgb(119,190,247);fill-rule:nonzero;"/>
    <path id="path20" d="M305.421,254.887L255.064,149.727L210.733,254.887L305.421,254.887ZM324.62,299.105L191.135,299.105L161.273,373.799L105.725,374.826L254.666,43.491L408.798,374.826L357.314,374.826L324.62,299.105Z" style="fill:rgb(242,242,242);fill-rule:nonzero;"/>
    <path id="path22" d="M254.664,43.491L255.062,149.727L305.367,254.968L254.778,254.968L254.664,299.037L324.617,299.105L357.312,374.839L410.462,375.824L254.664,43.491Z" style="fill:rgb(196,225,247);fill-rule:nonzero;"/>
</svg>
